!!!COM: Palestrina, Giovanni Perluigi da
!!!OPR: Missa In duplicibus minoribus (I)
!!!OMD: Gloria
!!!OTL: Quoniam
**kern	**kern	**kern	**kern	**kern
*Ibass	*Itenor	*Itenor	*Icalto	*Icant
!Bassus	!Tenor 2	!Tenor 1	!Altus	!Cantus
*clefF4	*clefGv2	*clefGv2	*clefG2	*clefG2
*k[]	*k[]	*k[]	*k[]	*k[]
*E:phr	*E:phr	*E:phr	*E:phr	*E:phr
*M4/2	*M4/2	*M4/2	*M4/2	*M4/2
=96	=96	=96	=96	=96
1r	0r	1B	0r	0r
1E	.	[1c	.	.
=97	=97	=97	=97	=97
1.F	0r	2c]	0r	0r
.	.	2B	.	.
.	.	2A	.	.
2E	.	2G	.	.
=98	=98	=98	=98	=98
2D	0r	2A	0r	0r
2C	.	2A	.	.
2D	.	4B	.	.
.	.	4A	.	.
2D	.	[2A	.	.
=99	=99	=99	=99	=99
2.E	1B	2A]	1r	0r
.	.	2G#	.	.
4D	.	.	.	.
4C	[1c	[1A	1e	.
4BB	.	.	.	.
2AA	.	.	.	.
=100	=100	=100	=100	=100
1D	2c]	2A]	1.f	0r
.	2B	2B	.	.
1C	2A	1c	.	.
.	2G	.	2e	.
=101	=101	=101	=101	=101
0r	2A	2.F	2d	1r
.	2A	.	2c	.
.	.	4A	.	.
.	1B	[1G	2d	1b
.	.	.	2d	.
=102	=102	=102	=102	=102
2.C	2.E	0G]	1.e	1.cc
4D	4F	.	.	.
4E	4G	.	.	.
4F	4A	.	.	.
2G	2B	.	4d	2b
.	.	.	4e	.
=103	=103	=103	=103	=103
2A	2c	0r	4f	2a
.	.	.	4e	.
2B	2d	.	1g	2g
2c	2e	.	.	2a
2d	[2d	.	2f	2a
=104	=104	=104	=104	=104
1G	2d]	1B	2.g	2.b
.	2G	.	.	.
.	.	.	4f	4a
1r	1r	1c	1e	2g
.	.	.	.	[2a
=105	=105	=105	=105	=105
1E	1B	1B	2r	2a]
.	.	.	1e	2g#
[1A	[1c	1A	.	1a
.	.	.	[2f	.
=106	=106	=106	=106	=106
2A]	2c]	0r	2f]	0r
2G	2B	.	2e	.
2F	2A	.	2d	.
2E	2G	.	2c	.
=107	=107	=107	=107	=107
2F	2A	2r	2d	2r
2G	2B	1G	2d	2b
2.C	[1E	.	[1e	1cc
.	.	[2A	.	.
4D	.	.	.	.
=108	=108	=108	=108	=108
1E	0E]	2A]	0e]	1b
.	.	2G	.	.
1AA	.	1c	.	1a
=109	=109	=109	=109	=109
[0E	[0E	[0B	[0e	[0g#
=110	=110	=110	=110	=110
0E]	0E]	0B]	0e]	0g#]
*-	*-	*-	*-	*-
!!!CDT: 1525/^1526/-1594/2/2
!!!OCY: Italia
!!!AGN: Mass (Paraphrase)
!!!AST: renaissance, vocal
!!!ASW: Gregorian Mass
!!!PWK: Masses, Book Mantuan I
!!!RNB: Cadence finals: A
!!!YOR: Le Opere Complete, v. 18, p. 42
!!!YOO: Rome, Italy: Fratelli Scalera
!!!END: 1992//
!!!EED: John Miller
!!!YEC: Copyright 2000, John Miller
!!!YEN: United States of America
!!!YEM: Rights to all derivative electronic formats reserved.
!!!YEM: Refer to licensing agreement for further details.
!!!YEM: This file must be accompanied by the licensing agreement.
!!!YEM: A copy of the licensing agreement may be found at http://www.music-cog.ohio-state.edu/HumdrumDatabases/Palestrina/license.txt
!!!EMD: converted to Humdrum by Bret Aarden
